X: 228
T: Angel Voices, Ever Singing
C: Words: Francis Pott, 1861.  Music: 'Angel Voices (Monk)' Edwin G. Monk, 1861.
C: SSAATTBB arrangement by Claude Sonnet 4.6, 2026.
C: Original setting: Presbyterian Hymnal, 1911. Public domain.
M: 4/4
L: 1/4
Q: 1/4=100
K: C
%%staves [(1 2) (3 4) (5 6) (7 8)]
V:1 name="Soprano I"  clef=treble
V:2 name="Soprano II" clef=treble
V:3 name="Alto I"     clef=treble
V:4 name="Alto II"    clef=treble
V:5 name="Tenor I"    clef=treble middle=B3 transpose=-12
V:6 name="Tenor II"   clef=treble middle=B3 transpose=-12
V:7 name="Baritone"   clef=bass
V:8 name="Bass I"     clef=bass
%%MIDI program 52
%
% ── PHRASE 1 (bars 1–4): SSAA opens; TTBB enters bar 2; full 8 by bar 4 ──
%
[V:1] [Q:1/4=100] e g a g | c' a g e | c d e f | d4 |
[V:2]             c e f e  | a f e c  | e c c d | (c2 B2) |
[V:3]             c d e d  | f e d B  | c c c A | (c2 B2) |
[V:4]             A G c A  | c c B G  | G A G F  | (G2 ^F2) |
[V:5]             z4       | G c B c  | E F G F  | G4 |
[V:6]             z4       | E G G E  | C D E D  | (E2 D2) |
[V:7]             z4       | G, C B, C | A, A, G, A, | G,4 |
[V:8]             z4       | C, C, B,, G,, | A,, A,, G,, F,, | G,,4 |
%
% ── PHRASE 2 (bars 5–8): Full 8-voice; S1/T1 in imitation; antiphonal bb 6-7 ──
%
[V:1] e g c' a | d'3/2 c'/ B g | a e g ^f | g4 |
[V:2] c e e e  | B c' d B      | e c d d  | (d2 c2) |
[V:3] c c c c  | f f g d       | c e c d  | (c2 B2) |
[V:4] G G A G  | D D E G       | A A A A  | (G2 F2) |
[V:5] G G A3/2 G/ | A A G G   | A A A A  | G4 |
[V:6] E E F E  | F F E E       | F F F F  | (E2 D2) |
[V:7] E, G, A,3/2 G,/ | F, D, G, B, | C, C, C, D, | G,,4 |
[V:8] C, E, A,,3/2 G,,/ | F,, D, G,, B,, | C, C, B,, A,, | G,,4 |
%
% ── PHRASE 3 (bars 9–13): Builds; stretto bar 11; climax bar 12; final cadence ──
%
[V:1] g g g a  | f f f g | !sintro!e g a c' | d'3 B | c'4 !eintro!|]
[V:2] e e d c  | d d d d | g e f e   | (f2 e2) d | e4 |]
[V:3] c c B A  | B B c B | c c c c   | (B2 c2) B | c4 |]
[V:4] G G G G  | G G A G | G G A G   | (G2 G2) G | G4 |]
[V:5] B, B, B, A, | A, A, A, G, | G, G, c c | (c2 B,) G, | c4 |]
[V:6] G, G, G, E, | F, F, F, E, | E, E, A, A, | (G,2 G,2) E, | E,4 |]
[V:7] E, D, C, C, | D, C, B,, B,, | C, E, F, A, | G,3 G,, | C,4 |]
[V:8] E,, D,, C,, C,, | D,, C,, B,,, B,,, | C,, E,, F,, A,, | G,,3 G,,, | C,,4 |]
